icons/copilot-error-16.svg

<svg width="16" height="16" viewBox="0 0 16 16" fill="none" xmlns="http://www.w3.org/2000/svg">
<g clip-path="url(#clip0_9325_119362)">
<path fill-rule="evenodd" clip-rule="evenodd" d="M15.9999 11.2401C15.9999 11.3525 15.9278 11.5136 15.7899 11.7068L13 9.68804V7.86173L12.9769 7.74622C12.4867 7.95586 11.9022 8.03747 11.25 8.03747C11.0525 8.03747 10.862 8.02775 10.6785 8.00827L6.83291 5.22568C6.90914 5.00044 6.96636 4.74092 7.00342 4.44444C7.12037 3.50883 6.96568 3.04886 6.76184 2.83046C6.56879 2.62362 6.12465 2.41686 5.08045 2.53288C4.39728 2.60879 3.96544 2.76433 3.68457 2.94762L2.42761 2.0381C3.00724 1.47396 3.84056 1.16127 4.91348 1.04205C6.11928 0.908076 7.17514 1.07631 7.8571 1.80698C7.90658 1.86 7.95294 1.9152 7.99631 1.9716C8.03967 1.9152 8.08969 1.86 8.13918 1.80698C8.82113 1.07631 9.87699 0.908076 11.0828 1.04205C12.313 1.17875 13.2282 1.56982 13.8072 2.30264C14.3725 3.01816 14.5 3.91675 14.5 4.78747C14.5 5.3595 14.447 5.93459 14.2458 6.44254C14.3123 6.67138 14.3438 6.8723 14.3724 7.05508C14.3842 7.13058 14.3955 7.2031 14.4087 7.27319C15.3334 7.65848 15.9306 8.74371 15.9999 9.36753V11.2401ZM10.9172 2.53288C9.87297 2.41686 9.42883 2.62362 9.23578 2.83046C9.03194 3.04886 8.87725 3.50883 8.9942 4.44444C9.08492 5.17023 9.2965 5.67458 9.61188 5.99654C9.91096 6.30186 10.3963 6.53747 11.25 6.53747C12.1723 6.53747 12.5295 6.33869 12.6918 6.15788C12.8709 5.95823 13 5.57978 13 4.78747C13 4.02182 12.8774 3.54541 12.6302 3.23253C12.3967 2.93694 11.9369 2.64619 10.9172 2.53288Z" fill="black"/>
<path fill-rule="evenodd" clip-rule="evenodd" d="M13.4283 13.6068C12.0349 14.3826 10.1565 15.0349 7.99814 15.0349C3.34708 15.0349 -0.00366211 12.0058 -0.00366211 11.2401V9.36753C0.0657067 8.74371 0.662905 7.65848 1.5876 7.27319C1.60075 7.20302 1.6121 7.1305 1.62392 7.05491C1.65252 6.87212 1.68393 6.67138 1.75044 6.44254C1.57039 5.98796 1.50907 5.47959 1.49817 4.96778L0.310111 4.10746C-0.0253782 3.86452 -0.100404 3.39561 0.142537 3.06012C0.262608 2.89431 0.437877 2.79212 0.624956 2.7605C0.780901 2.73414 0.931444 2.80688 1.05973 2.89938L15.7274 13.4768C15.8234 13.546 15.9129 13.6294 15.9538 13.7405C16.0371 13.9671 16.0097 14.2297 15.8574 14.4399C15.6145 14.7754 15.1456 14.8504 14.8101 14.6075L13.4283 13.6068ZM12.0605 12.6163L5.63522 7.96357C5.35683 8.0129 5.06033 8.03747 4.74633 8.03747C4.0941 8.03747 3.50959 7.95586 3.01944 7.74622L2.99634 7.86173V12.1171C3.41459 12.4403 5.71829 13.5503 7.99816 13.5503C9.53718 13.5503 11.0871 13.0445 12.0605 12.6163Z" fill="black"/>
</g>
<defs>
<clipPath id="clip0_9325_119362">
<rect width="16" height="16" fill="white"/>
</clipPath>
</defs>
</svg>

<svg xmlns="http://www.w3.org/2000/svg" width="16" height="16" viewBox="0 0 16 16"><path d="M16 11.24c0 .112-.072.274-.21.467L13 9.688V7.862l-.023-.116c-.49.21-1.075.291-1.727.291-.198 0-.388-.009-.571-.029L6.833 5.226a4.01 4.01 0 0 0 .17-.782c.117-.935-.037-1.395-.241-1.614-.193-.206-.637-.413-1.682-.297-.683.076-1.115.231-1.395.415l-1.257-.91c.579-.564 1.413-.877 2.485-.996 1.206-.134 2.262.034 2.944.765.05.053.096.108.139.165.044-.057.094-.112.143-.165.682-.731 1.738-.899 2.944-.765 1.23.137 2.145.528 2.724 1.261.566.715.693 1.614.693 2.484 0 .572-.053 1.148-.254 1.656.066.228.098.429.126.612.012.076.024.148.037.218.924.385 1.522 1.471 1.591 2.095Zm-5.083-8.707c-1.044-.116-1.488.091-1.681.297-.204.219-.359.679-.242 1.614.091.726.303 1.231.618 1.553.299.305.784.54 1.638.54.922 0 1.28-.198 1.442-.379.179-.2.308-.578.308-1.371 0-.765-.123-1.242-.37-1.554-.233-.296-.693-.587-1.713-.7Zm2.511 11.074c-1.393.776-3.272 1.428-5.43 1.428-4.562 0-7.873-2.914-7.998-3.749V9.338c.085-.628.677-1.686 1.588-2.065.013-.07.024-.143.036-.218.029-.183.06-.384.126-.612-.18-.455-.241-.963-.252-1.475L.31 4.107A.747.747 0 0 1 0 3.509V3.49a.748.748 0 0 1 .625-.73c.156-.026.306.047.435.139l14.667 10.578a.592.592 0 0 1 .227.264.752.752 0 0 1 .046.249v.022a.75.75 0 0 1-1.19.596Zm-1.367-.991L5.635 7.964a5.128 5.128 0 0 1-.889.073c-.652 0-1.236-.081-1.727-.291l-.023.116v4.255c.419.323 2.722 1.433 5.002 1.433 1.539 0 3.089-.505 4.063-.934Z"/></svg>
